X:453
%%etbk:tnset id:143,pos:1,rep:3x,ant:
%%etbk:wsite http://thesession.org/tunes/211
%%etbk:pldat 2014-04-08T17:54,2014-02-05T16:00,2013-10-03T19:47
T: Inisheer
Z: Piano Box Version by Martin Fleischmann
H: Created 2013-02-19 /  Last Modified 2013-02-19
R: waltz
M: 3/4
L: 1/8
K: Gmaj
"G"!2!B2{d}-BA B<!4!d | "em"!2!B2-BA B<!4!d | "C"!1!E3!4!B AB | "D"!1!D3!4!B AG | 
"G"!4!!2!B2-BA B<!4!d | "em"!2!B2{d}-BA B<!4!d  | "G"!1!G3!3!B "D"!2!A/2!1!G/2!2!F |1 "G"!1!!2!G3!1!E !1!D!2!G :|2 "G"!1!G3!1!A !2!B!3!d ||
"C"!4!e3f ed | "bm"!2!B3A Bd | "em"!4!ef e!3!d !1!B/2!2!c/2!3!d | 
"C"!4!e3!1!A !2!B!3!d | !4!e3f e!3!d | "D"!2!B2{d}-BA !2!B<!4!d | "G"!1!G3!3!B "D"!2!A/2!1!G/2!2!F | 
"G"!1!G3!1!A !2!B!3!d | "C"!4!e3f ed | "bm"!2!B3A B!3!d | "em"!5!gf e!2!d !1!B/2!2!c/2!3!d | 
"C"!4!e3!1!A !2!B!3!d | !4!e3f ed | "D"!2!B2{d}-BA !2!B<!4!d  | "G"!1!G3!3!B "D"!2!A/2!1!G/2!2!F | "G"!1!G6 ||


